app/dist/common/images/concrete-pumping-holdings-inc.svg

<svg fill="none" height="18" viewBox="0 0 18 18" width="18" xmlns="http://www.w3.org/2000/svg"><path d="m0 0h18v18h-18z" fill="#f0f3fa"/><g clip-rule="evenodd" fill-rule="evenodd"><path d="m3.99997 5.99998h10.00003v-1h-10.00003z" fill="#ffd300"/><path d="m3.99997 13h10.00003v-1h-10.00003z" fill="#ffd300"/><path d="m3.99997 5.29998h10.00003v-.3h-10.00003z" fill="#2ea64a"/><path d="m3.99997 13h10.00003v-.3h-10.00003z" fill="#2ea64a"/><path d="m7.39046 8.47143c-.05109-.21769-.16604-.36075-.3257-.45389-.15328-.09346-.34471-.13062-.55562-.13062-.55546 0-.9321.47877-.9321 1.06344 0 .79599.52991 1.11924.9768 1.10064.33848-.0125.63226-.15553.77276-.46637h1.42385c-.14034 1.15677-1.20687 1.75987-2.33695 1.75987-1.45594 0-2.25392-1.051-2.25392-2.40036 0-1.27492.78521-2.2886 2.16435-2.2886.37057 0 .83024.10574 1.07276.41658h.01277v-.31706h1.21342v1.71637z" fill="#f37920"/><path d="m6.32414 6.8111c-1.1992 0-2.00485.85725-2.00485 2.1331 0 1.3637.82209 2.2449 2.09442 2.2449.9337 0 1.92998-.4497 2.14903-1.44891h-1.1379c-.1694.28741-.47243.45191-.86472.46631-.2802.0125-.56232-.0917-.76844-.28407-.17068-.15922-.37425-.45716-.37425-.97201 0-.69491.46956-1.21893 1.09192-1.21893.25673 0 .47212.05178.64024.15425.16956.09905.2909.24382.36035.43026h.95333v-1.40538h-.89393v.31721h-.23886l-.06067-.06142c-.25721-.32965-.78888-.35531-.94567-.35531zm.08957 4.689c-1.44364 0-2.41374-1.0272-2.41374-2.5559 0-1.46198.93401-2.44409 2.32417-2.44409.35764 0 .68223.08521.92588.23666v-.13715h1.53257v1.90036h-1.51916c-.04508-.19164-.09823-.24242-.28069-.34912-.11894-.07246-.27749-.10838-.47339-.10838-.44769 0-.7726.3819-.7726.90794 0 .32064.09548.57907.2759.74748.14353.13404.33816.20556.53438.19779.32869-.01207.54418-.10533.67552-.39571h1.70757c-.15975 1.31662-1.21446 2.00012-2.51641 2.00012z" fill="#231f20"/><path d="m11.0609 8.68031h.6403c.4489 0 .6866-.21528.6866-.51538 0-.36533-.1981-.55452-.6866-.55452h-.6403zm-1.91432 2.67459v-.9653h.48836v-2.77919h-.48836v-.96553h2.82532c1.3267 0 1.8813.49581 1.8813 1.50048s-.5546 1.50048-1.8813 1.50048h-.911v.74376h.561v.9653z" fill="#f37920"/><path d="m11.2803 8.53542h.4936c.1624 0 .5399-.0361.5399-.37041 0-.24573-.0918-.40955-.5399-.40955h-.4936zm.4936.28994h-.7739v-1.32538h.7739c.553 0 .8333.20097.8333.66503 0 .40114-.3271.66035-.8333.66035zm-2.48053 2.38464h2.25453v-.71h-.5479v-.99906h1.0446c1.2159 0 1.662-.40549 1.662-1.3555 0-.95002-.5188-1.35551-1.7346-1.35551h-2.67863v.71005h.48837v3.00002h-.48837zm2.54793.29h-2.84133v-1.2553h.48837v-2.48924h-.48837v-1.25548h2.97203c1.3647 0 2.028.53829 2.028 1.64546 0 1.10716-.5906 1.64545-1.9554 1.64545h-.7643v.45381h.561z" fill="#231f20"/></g></svg>

<!-- by TradingView --><svg width="18" height="18" viewBox="0 0 18 18" fill="none" xmlns="http://www.w3.org/2000/svg">
<rect width="18" height="18" fill="#F0F3FA"/>
<path fill-rule="evenodd" clip-rule="evenodd" d="M3.99997 5.99998H14V4.99998H3.99997V5.99998Z" fill="#FFD300"/>
<path fill-rule="evenodd" clip-rule="evenodd" d="M3.99997 13H14V12H3.99997V13Z" fill="#FFD300"/>
<path fill-rule="evenodd" clip-rule="evenodd" d="M3.99997 5.29998H14V4.99998H3.99997V5.29998Z" fill="#2EA64A"/>
<path fill-rule="evenodd" clip-rule="evenodd" d="M3.99997 13H14V12.7H3.99997V13Z" fill="#2EA64A"/>
<path fill-rule="evenodd" clip-rule="evenodd" d="M7.39046 8.47143C7.33937 8.25374 7.22442 8.11068 7.06476 8.01754C6.91148 7.92408 6.72005 7.88692 6.50914 7.88692C5.95368 7.88692 5.57704 8.36569 5.57704 8.95036C5.57704 9.74635 6.10695 10.0696 6.55384 10.051C6.89232 10.0385 7.1861 9.89547 7.3266 9.58463H8.75045C8.61011 10.7414 7.54358 11.3445 6.4135 11.3445C4.95756 11.3445 4.15958 10.2935 4.15958 8.94414C4.15958 7.66922 4.94479 6.65554 6.32393 6.65554C6.6945 6.65554 7.15417 6.76128 7.39669 7.07212H7.40946V6.75506H8.62288V8.47143H7.39046Z" fill="#F37920"/>
<path fill-rule="evenodd" clip-rule="evenodd" d="M6.32414 6.8111C5.12494 6.8111 4.31929 7.66835 4.31929 8.9442C4.31929 10.3079 5.14138 11.1891 6.41371 11.1891C7.34741 11.1891 8.34369 10.7394 8.56274 9.74019H7.42484C7.25544 10.0276 6.95241 10.1921 6.56012 10.2065C6.27992 10.219 5.9978 10.1148 5.79168 9.92243C5.621 9.76321 5.41743 9.46527 5.41743 8.95042C5.41743 8.25551 5.88699 7.73149 6.50935 7.73149C6.76608 7.73149 6.98147 7.78327 7.14959 7.88574C7.31915 7.98479 7.44049 8.12956 7.50994 8.316H8.46327V6.91062H7.56934V7.22783H7.33048L7.26981 7.16641C7.0126 6.83676 6.48093 6.8111 6.32414 6.8111ZM6.41371 11.5001C4.97007 11.5001 3.99997 10.4729 3.99997 8.9442C3.99997 7.48222 4.93398 6.50011 6.32414 6.50011C6.68178 6.50011 7.00637 6.58532 7.25002 6.73677V6.59962H8.78259V8.49998H7.26343C7.21835 8.30834 7.1652 8.25756 6.98274 8.15086C6.8638 8.0784 6.70525 8.04248 6.50935 8.04248C6.06166 8.04248 5.73675 8.42438 5.73675 8.95042C5.73675 9.27106 5.83223 9.52949 6.01265 9.6979C6.15618 9.83194 6.35081 9.90346 6.54703 9.89569C6.87572 9.88362 7.09121 9.79036 7.22255 9.49998H8.93012C8.77037 10.8166 7.71566 11.5001 6.41371 11.5001Z" fill="#231F20"/>
<path fill-rule="evenodd" clip-rule="evenodd" d="M11.0609 8.68031H11.7012C12.1501 8.68031 12.3878 8.46503 12.3878 8.16493C12.3878 7.7996 12.1897 7.61041 11.7012 7.61041H11.0609V8.68031ZM9.14658 11.3549V10.3896H9.63494V7.61041H9.14658V6.64488H11.9719C13.2986 6.64488 13.8532 7.14069 13.8532 8.14536C13.8532 9.15003 13.2986 9.64584 11.9719 9.64584H11.0609V10.3896H11.6219V11.3549H9.14658Z" fill="#F37920"/>
<path fill-rule="evenodd" clip-rule="evenodd" d="M11.2803 8.53542H11.7739C11.9363 8.53542 12.3138 8.49932 12.3138 8.16501C12.3138 7.91928 12.222 7.75546 11.7739 7.75546H11.2803V8.53542ZM11.7739 8.82536H11V7.49998H11.7739C12.3269 7.49998 12.6072 7.70095 12.6072 8.16501C12.6072 8.56615 12.2801 8.82536 11.7739 8.82536ZM9.29337 11.21H11.5479V10.5H11V9.50094H12.0446C13.2605 9.50094 13.7066 9.09545 13.7066 8.14544C13.7066 7.19542 13.1878 6.78993 11.972 6.78993H9.29337V7.49998H9.78174V10.5H9.29337V11.21ZM11.8413 11.5H8.99997V10.2447H9.48834V7.75546H8.99997V6.49998H11.972C13.3367 6.49998 14 7.03827 14 8.14544C14 9.2526 13.4094 9.79089 12.0446 9.79089H11.2803V10.2447H11.8413V11.5Z" fill="#231F20"/>
</svg>
